assets/img/Approve.svg

<svg width="200" height="200" viewBox="0 0 200 200" fill="none" xmlns="http://www.w3.org/2000/svg">
<g filter="url(#filter0_dd)">
<circle cx="100" cy="100" r="75" fill="#24BE99"/>
</g>
<path fill-rule="evenodd" clip-rule="evenodd" d="M107.556 64.6685C98.2973 64.6026 89.0363 64.6666 79.7778 64.6666C75.1546 64.6666 74.2222 65.599 74.2222 70.2221V131.333C74.2222 135.956 75.1546 136.889 79.7778 136.889H124.222C128.845 136.889 129.778 135.956 129.778 131.333C129.778 129.441 130.09 127.167 132.556 127.167C135.071 127.167 135.333 129.51 135.333 131.422C135.333 138.803 131.692 142.445 124.311 142.444H79.6889C72.3082 142.445 68.6667 138.803 68.6667 131.422V70.1333C68.6667 62.7538 72.3072 59.1109 79.6874 59.111L107.074 59.1109C110.164 59.1085 112.416 60.0398 114.6 62.2265L114.602 62.229L132.215 79.8423C134.352 81.9761 135.336 84.2813 135.334 87.3658L135.333 94.5277C135.333 96.0618 134.09 97.3055 132.556 97.3055C131.021 97.3055 129.778 96.0618 129.778 94.5277C129.778 91.9816 129.795 89.4349 129.776 86.8888H115.889C111.287 86.8888 107.556 83.1578 107.556 78.5555V64.6685ZM125.849 81.3332L113.111 68.595V78.5555C113.111 80.0896 114.355 81.3332 115.889 81.3332H125.849Z" fill="#F5FFFA"/>
<path d="M82.5556 95.2221C82.5556 93.688 83.7991 92.4444 85.3333 92.4444H118.667C120.201 92.4444 121.444 93.688 121.444 95.2221C121.444 96.7563 120.201 97.9999 118.667 97.9999H85.3333C83.7991 97.9999 82.5556 96.7563 82.5556 95.2221Z" fill="#F5FFFA"/>
<path d="M85.3333 81.3332C83.7991 81.3332 82.5556 82.5769 82.5556 84.111C82.5556 85.6451 83.7991 86.8888 85.3333 86.8888H96.4444C97.9786 86.8888 99.2222 85.6451 99.2222 84.111C99.2222 82.5769 97.9786 81.3332 96.4444 81.3332H85.3333Z" fill="#F5FFFA"/>
<path fill-rule="evenodd" clip-rule="evenodd" d="M105.704 116.287C106.788 115.202 108.547 115.202 109.632 116.287L116.262 122.917L131.485 107.693C132.57 106.608 134.328 106.608 135.413 107.693C136.498 108.778 136.498 110.537 135.413 111.622L118.226 128.809C117.141 129.894 115.382 129.894 114.297 128.809L105.704 120.215C104.619 119.131 104.619 117.372 105.704 116.287Z" fill="#33D87D"/>
<defs>
<filter id="filter0_dd" x="0" y="0" width="200" height="200" filterUnits="userSpaceOnUse" color-interpolation-filters="sRGB">
<feFlood flood-opacity="0" result="BackgroundImageFix"/>
<feColorMatrix in="SourceAlpha" type="matrix" values="0 0 0 0 0 0 0 0 0 0 0 0 0 0 0 0 0 0 127 0"/>
<feOffset dx="10" dy="10"/>
<feGaussianBlur stdDeviation="7.5"/>
<feColorMatrix type="matrix" values="0 0 0 0 0.682353 0 0 0 0 0.682353 0 0 0 0 0.752941 0 0 0 0.4 0"/>
<feBlend mode="normal" in2="BackgroundImageFix" result="effect1_dropShadow"/>
<feColorMatrix in="SourceAlpha" type="matrix" values="0 0 0 0 0 0 0 0 0 0 0 0 0 0 0 0 0 0 127 0"/>
<feOffset dx="-10" dy="-10"/>
<feGaussianBlur stdDeviation="7.5"/>
<feColorMatrix type="matrix" values="0 0 0 0 1 0 0 0 0 1 0 0 0 0 1 0 0 0 1 0"/>
<feBlend mode="normal" in2="effect1_dropShadow" result="effect2_dropShadow"/>
<feBlend mode="normal" in="SourceGraphic" in2="effect2_dropShadow" result="shape"/>
</filter>
</defs>
</svg>

<svg xmlns="http://www.w3.org/2000/svg" width="200" height="200" fill="none" xmlns:v="https://vecta.io/nano"><g filter="url(#A)"><circle cx="100" cy="100" r="75" fill="#24be99"/></g><g fill="#f5fffa"><path fill-rule="evenodd" d="M107.556 64.668l-27.778-.002c-4.623 0-5.556.932-5.556 5.555v61.11c0 4.623.932 5.556 5.556 5.556h44.444c4.623 0 5.556-.933 5.556-5.556 0-1.892.312-4.166 2.778-4.166 2.515 0 2.777 2.343 2.777 4.255 0 7.38-3.64 11.023-11.022 11.022H79.69c-7.38.001-11.022-3.64-11.022-11.022v-61.29c0-7.38 3.64-11.022 11.02-11.022h27.387c3.1-.002 5.342.93 7.526 3.116l.002.002 17.613 17.613c2.137 2.134 3.12 4.44 3.12 7.523l-.001 7.162a2.78 2.78 0 0 1-2.777 2.778 2.78 2.78 0 0 1-2.778-2.778l-.002-7.64H115.89c-4.602 0-8.333-3.73-8.333-8.333V64.668zm18.293 16.665L113.11 68.595v9.96a2.78 2.78 0 0 0 2.778 2.778h9.96z"/><path d="M82.556 95.222a2.78 2.78 0 0 1 2.778-2.778h33.334a2.78 2.78 0 0 1 2.777 2.778A2.78 2.78 0 0 1 118.667 98H85.333a2.78 2.78 0 0 1-2.778-2.778zm2.777-13.89a2.78 2.78 0 0 0-2.778 2.778 2.78 2.78 0 0 0 2.778 2.778h11.1a2.78 2.78 0 0 0 2.778-2.778 2.78 2.78 0 0 0-2.778-2.778h-11.1z"/></g><path fill-rule="evenodd" d="M105.704 116.287a2.78 2.78 0 0 1 3.928 0l6.63 6.63 15.223-15.224a2.78 2.78 0 0 1 3.928 0 2.78 2.78 0 0 1 0 3.929l-17.187 17.187a2.78 2.78 0 0 1-3.929 0l-8.593-8.594a2.78 2.78 0 0 1 0-3.928z" fill="#33d87d"/><defs><filter id="A" x="0" y="0" width="200" height="200" filterUnits="userSpaceOnUse" color-interpolation-filters="sRGB"><feFlood flood-opacity="0" result="A"/><feColorMatrix in="SourceAlpha" values="0 0 0 0 0 0 0 0 0 0 0 0 0 0 0 0 0 0 127 0"/><feOffset dx="10" dy="10"/><feGaussianBlur stdDeviation="7.5"/><feColorMatrix values="0 0 0 0 0.682353 0 0 0 0 0.682353 0 0 0 0 0.752941 0 0 0 0.4 0"/><feBlend in2="A" result="B"/><feColorMatrix in="SourceAlpha" values="0 0 0 0 0 0 0 0 0 0 0 0 0 0 0 0 0 0 127 0"/><feOffset dx="-10" dy="-10"/><feGaussianBlur stdDeviation="7.5"/><feColorMatrix values="0 0 0 0 1 0 0 0 0 1 0 0 0 0 1 0 0 0 1 0"/><feBlend in2="B"/><feBlend in="SourceGraphic"/></filter></defs></svg>
